symbols/web/add_call/materialsymbolsrounded/add_call_wght600grad200fill1_48px.svg

<svg xmlns="http://www.w3.org/2000/svg" height="48" width="48"><path d="M34.55 21.25q-.75 0-1.25-.475t-.5-1.325v-4.6h-4.65q-.75 0-1.25-.5t-.5-1.25q0-.8.5-1.275.5-.475 1.25-.475h4.65v-4.7q0-.7.525-1.225Q33.85 4.9 34.6 4.9q.75 0 1.25.525t.5 1.225v4.7H41q.75 0 1.25.5t.5 1.25q0 .75-.5 1.25t-1.25.5h-4.65v4.6q0 .85-.5 1.325t-1.3.475ZM40 42.9q-6.35 0-12.6-3.1t-11.2-8.025Q11.25 26.85 8.15 20.55q-3.1-6.3-3.1-12.6 0-1.25.85-2.1Q6.75 5 8 5h7.25q1.2 0 2 .675T18.3 7.55l1.4 6.05q.15 1.1-.1 1.9-.25.8-.8 1.35l-5.2 4.95q2.55 4.15 5.75 7.275t7 5.275l5.05-5.05q.65-.7 1.475-1 .825-.3 1.825-.05l5.7 1.35q1.15.3 1.85 1.125.7.825.7 2.025v7.2q0 1.3-.85 2.125T40 42.9Z"/></svg>

<svg xmlns="http://www.w3.org/2000/svg" height="48" width="48"><path d="M34.55 21.25Q33.8 21.25 33.3 20.775Q32.8 20.3 32.8 19.45V14.85H28.15Q27.4 14.85 26.9 14.35Q26.4 13.85 26.4 13.1Q26.4 12.3 26.9 11.825Q27.4 11.35 28.15 11.35H32.8V6.65Q32.8 5.95 33.325 5.425Q33.85 4.9 34.6 4.9Q35.35 4.9 35.85 5.425Q36.35 5.95 36.35 6.65V11.35H41Q41.75 11.35 42.25 11.85Q42.75 12.35 42.75 13.1Q42.75 13.85 42.25 14.35Q41.75 14.85 41 14.85H36.35V19.45Q36.35 20.3 35.85 20.775Q35.35 21.25 34.55 21.25ZM40 42.9Q33.65 42.9 27.4 39.8Q21.15 36.7 16.2 31.775Q11.25 26.85 8.15 20.55Q5.05 14.25 5.05 7.95Q5.05 6.7 5.9 5.85Q6.75 5 8 5H15.25Q16.45 5 17.25 5.675Q18.05 6.35 18.3 7.55L19.7 13.6Q19.85 14.7 19.6 15.5Q19.35 16.3 18.8 16.85L13.6 21.8Q16.15 25.95 19.35 29.075Q22.55 32.2 26.35 34.35L31.4 29.3Q32.05 28.6 32.875 28.3Q33.7 28 34.7 28.25L40.4 29.6Q41.55 29.9 42.25 30.725Q42.95 31.55 42.95 32.75V39.95Q42.95 41.25 42.1 42.075Q41.25 42.9 40 42.9Z"/></svg>
